X:25
T: After the Blizzard
C: BB
R: jig
Q: 1/8=320
M: 6/8
L: 1/8
K: D
A|"D"ded "Bm"BAF | "D"ADD D2 A | "D"ded "A"cBA |"D"FAd "Bm"B2 A |
"D"ded "A"cdc | "Bm"Bcd "A"ABc | "D"dAF "A"EDE | "D"FDD D2 :|
A|"D"dff "G"dcB | "D"Add FED | DFA def | "Bm"baf "A"e2 A |
"D"dff "G"dcB | "D"Add FED | DFA "Em"BGE |"D"FDD D2 :|
%%%%%%%%%%%%%%%%%%%%%%%%%%%%%%%%%%%%%%%%%%%%%
